svg/24/starbursts.svg

<svg width="24" height="24" viewBox="0 0 24 24" fill="currentColor" xmlns="http://www.w3.org/2000/svg"><path fill-rule="evenodd" clip-rule="evenodd" d="M15.6617 4.6615L13.3589 5.56972C12.5148 5.90264 12.5148 7.09732 13.3589 7.43024L15.6617 8.33846L16.5699 10.6413C16.9029 11.4854 18.0975 11.4854 18.4305 10.6413L19.3387 8.33846L21.6415 7.43024C22.4856 7.09732 22.4856 5.90264 21.6415 5.56972L19.3387 4.6615L18.4305 2.3587C18.0975 1.51455 16.9029 1.51455 16.5699 2.3587L15.6617 4.6615ZM18.1823 5.81788L17.5002 4.08839L16.8181 5.81788L15.0886 6.49998L16.8181 7.18208L17.5002 8.91157L18.1823 7.18208L19.9118 6.49998L18.1823 5.81788Z"/><path fill-rule="evenodd" clip-rule="evenodd" d="M15.6617 15.6615L13.3589 16.5697C12.5148 16.9026 12.5148 18.0973 13.3589 18.4302L15.6617 19.3385L16.5699 21.6413C16.9029 22.4854 18.0975 22.4854 18.4305 21.6413L19.3387 19.3385L21.6415 18.4302C22.4856 18.0973 22.4856 16.9026 21.6415 16.5697L19.3387 15.6615L18.4305 13.3587C18.0975 12.5146 16.9029 12.5146 16.5699 13.3587L15.6617 15.6615ZM18.1823 16.8179L17.5002 15.0884L16.8181 16.8179L15.0886 17.5L16.8181 18.1821L17.5002 19.9116L18.1823 18.1821L19.9118 17.5L18.1823 16.8179Z"/><path fill-rule="evenodd" clip-rule="evenodd" d="M2.35894 11.0697L5.73748 9.73726L7.06996 6.35872C7.40289 5.51457 8.59756 5.51457 8.93049 6.35872L10.263 9.73726L13.6415 11.0697C14.4857 11.4027 14.4857 12.5973 13.6415 12.9303L10.263 14.2627L8.93049 17.6413C8.59756 18.4854 7.40289 18.4854 7.06996 17.6413L5.73748 14.2627L2.35894 12.9303C1.51479 12.5973 1.51479 11.4027 2.35894 11.0697ZM9.10659 10.8936L11.9118 12L9.10659 13.1064L8.00022 15.9116L6.89386 13.1064L4.08863 12L6.89386 10.8936L8.00022 8.08841L9.10659 10.8936Z"/></svg>

<svg xmlns="http://www.w3.org/2000/svg" width="24" height="24" fill="currentColor" viewBox="0 0 24 24">
  <path fill-rule="evenodd" d="m15.662 4.662-2.303.908c-.844.333-.844 1.527 0 1.86l2.303.908.908 2.303c.333.844 1.527.844 1.86 0l.909-2.303 2.303-.908c.844-.333.844-1.527 0-1.86l-2.303-.909-.909-2.302c-.332-.844-1.527-.844-1.86 0l-.908 2.303Zm2.52 1.156-.682-1.73-.682 1.73-1.73.682 1.73.682.682 1.73.682-1.73 1.73-.682-1.73-.682Zm-2.52 9.844-2.303.908c-.844.333-.844 1.527 0 1.86l2.303.909.908 2.302c.333.844 1.527.844 1.86 0l.909-2.302 2.303-.909c.844-.333.844-1.527 0-1.86l-2.303-.909-.909-2.302c-.332-.844-1.527-.844-1.86 0l-.908 2.303Zm2.52 1.156-.682-1.73-.682 1.73-1.73.682 1.73.682.682 1.73.682-1.73 1.73-.682-1.73-.682ZM2.359 11.07l3.378-1.333L7.07 6.36c.333-.844 1.528-.844 1.86 0l1.333 3.378 3.379 1.333c.844.333.844 1.527 0 1.86l-3.379 1.333L8.93 17.64c-.332.844-1.527.844-1.86 0l-1.333-3.378L2.36 12.93c-.844-.333-.844-1.527 0-1.86Zm6.748-.176L11.912 12l-2.805 1.106L8 15.912l-1.106-2.806L4.089 12l2.805-1.106L8 8.088l1.107 2.806Z" clip-rule="evenodd"/>
</svg>
